!!!OTL: The Dark-Eyed Sailor
!!!ONM: 29.
**kern
*clefG2
*k[b-]
*F:
*M6/4
*MM120
{4c
=1
4f
8a
8a
2a
4g
(8a
8g)
=2
4f
(8g
8f)
2.d}
{8c
8c
=3
4f
(8a
8cc)
!corrected -- D. Conklin 
!4cc
2.cc
8dd
8a
=4
4cc
(8dd
8g)
2.a}
{(8dd
8b-)
=5||
*M5/4
4cc
4a
2f
8e
8d
=6||
*M6/4
4g
4a
2.b-}
{8a
8g
=7||
*M7/4
4a
4f
4d
2c
(4.f
8g)
=8||
*M6/4
4a
4cc
(8dd
8cc)
2dd}
{(8b-
8g)
=9||
*M4/4
4.a
8b-
(8g
8f)
(8g
8e)
=10
2.f}
==
*-
!!!CNT: Folksongs of Maritime Canada
!!!MRD: 1928///-1932///
!!!OCL: Helen Creighton
!!!YOR: Songs and Ballads from Nova Scotia
!!!PPR: J.M. Dent & Sons, Limited
!!!PPP: Toronto, Canada
!!!PDT: 1932///
!!!reprint: Dover Publications, 1992: ISBN 0-486-21703-5
!!!ENC1: Craig Stuart Sapp (music and bibliographic data)                       
!!!ENC2: Marcus Pearce (phrase markings and key designations)                   
!!!ENC3: Darrell Conklin (phrase markings and key designations)   
!!!END: 2002/04/10/
!!!EEV: 2004/06/05
!!!MPN: Mrs. Thomas Osborne
!!!PPG: 58
!!!EFL: 29/152
!!!ARE: Canada; Nova Scotia
!!!verses: 8
!!!VTS: 844256625
